X: 2
T: Rachel Dafydd Ifan
M: 2/4
L: 1/8
R: polka
K: A Major
|: e/d/ |\
cc cc | e/f/e/d/ ce | BB BB | d/e/d/c/ Be/d/ |
cc cc | e/f/e/d/ ce | d/e/d/B/ G/B/e/d/ | cA A :|
|: c/e/ |\
aa ae | e/f/e/d/ ce | aa ae | d/e/d/c/ Bc/e/ |
aa ae | e/f/e/d/ ce | d/e/d/B/ G/B/e/d/ | cA A :|
